www/assets/icons/money_off.svg

<svg xmlns="http://www.w3.org/2000/svg" width="24" height="24" viewBox="0 0 24 24" fill='currentColor'><path d="M12.5 6.9c1.78 0 2.44.85 2.5 2.1h2.21c-.07-1.72-1.12-3.3-3.21-3.81V3h-3v2.16c-.53.12-1.03.3-1.48.54l1.47 1.47c.41-.17.91-.27 1.51-.27M5.33 4.06 4.06 5.33 7.5 8.77c0 2.08 1.56 3.21 3.91 3.91l3.51 3.51c-.34.48-1.05.91-2.42.91-2.06 0-2.87-.92-2.98-2.1h-2.2c.12 2.19 1.76 3.42 3.68 3.83V21h3v-2.15c.96-.18 1.82-.55 2.45-1.12l2.22 2.22 1.27-1.27z"/></svg>

<svg width="24" height="24" viewBox="0 0 24 24" xmlns="http://www.w3.org/2000/svg" fill='currentColor'><path d="M12.5 6.9C14.28 6.9 14.94 7.75 15 9H17.21C17.14 7.28 16.09 5.7 14 5.19V3H11V5.16C10.47 5.28 9.97 5.46 9.52 5.7L10.99 7.17C11.4 7 11.9 6.9 12.5 6.9ZM5.33 4.06L4.06 5.33L7.5 8.77C7.5 10.85 9.06 11.98 11.41 12.68L14.92 16.19C14.58 16.67 13.87 17.1 12.5 17.1C10.44 17.1 9.63 16.18 9.52 15H7.32C7.44 17.19 9.08 18.42 11 18.83V21H14V18.85C14.96 18.67 15.82 18.3 16.45 17.73L18.67 19.95L19.94 18.68L5.33 4.06Z"/></svg>
